X:1
T:Title
%%score ( 1 2 ) { 3 | 4 }
L:1/8
Q:1/4=95
M:4/4
K:E
V:1 treble nm="Grand Piano, Soprano"
V:2 treble 
V:3 bass nm="Choir Pad, Morada, LMD"
V:4 bass 
V:1
 Bc [EG]2- [EG][DF][CE][CE] | [DF][DF] [EG]6 | Bc [EG]2- [EG][DF]EE | E[EG] [DF]6 | %4
w: By~George~W.~Bacon,~1910 * * * * * *||||
 Bc [Ge]2 [Ac][GB] [EG]2 | Bc [Ge]2 [Ac]2 [GB]2 | cB [EG]4- [EG][EA] | %7
w: |||
 [EB][Ec][EG][DF] [CE][DF] [B,E]2 | cBB-[GB-] [GB-][AB-][GB][EG] | [GB][Ac][GB][GB] B-[FB-] [GB]2 | %10
w: |||
 cBB-[GB-] [GB-][AB-][GB][EG] | z4 G4 | .B2 z2 z4 | .B2 z2 z4 | .c2 z2 z4 | %15
w: |||||
 [EB][Ec][EG][DF] [CE][DF] [B,E]2- | [B,E]6 z2 |] %17
w: ||
V:2
 E2 z2 z4 | x8 | E2 z2 z4 | x8 | E2 z2 z4 | E2 z2 z4 | G2 z2 z4 | x8 | G2 .G2 z4 | z4 .F2 z2 | %10
 G2 .G2 z4 | [Ec][EB][EG][EG] EE E2 | E-[Ec] [Ge]2 [Ac][GB] [EG]2 | E-[Ec] [Ge]2 [Ac]2 [GB]2 | %14
 G-[GB] [EG]4- [EG][EA] | x8 | x8 |] %17
V:3
 G,A, B,2- B,A,G,G, | B,B, B,6 | G,A, B,2- B,B,B,B, | B,B, B,6 | G,A, B,2 E2 B,2 | %5
 G,A, B,2[K:treble] E2 E2 | E2 B,B, CC[K:bass]B,B, | ECB,A, G,A, G,2 | E2 EE DDEB, | EEEE DD E2 | %10
 E2 EE DDE[K:bass]B, | A,G,B,B, CC B,2 | G,A, B,2 E2 B,2 | G,A, B,2[K:treble] E2 E2 | %14
 E2 B,B, CC[K:bass]B,B, | ECB,A, G,A, G,2- | G,6 z2 |] %17
V:4
 E,2 E,2- E,B,,C,C, | B,,B,, E,6 | E,2 E,2- E,F,G,G, | G,E, B,,6 | E,2 E,2 E,2 E,2 | %5
 E,2 E,2 E,2 E,2 | E,2 E,E, C,C,E,F, | G,A, z B,, C,B,, E,2 | E,2 E,E, G,F,E,E, | %9
 E,E,E,E, B,,B,, E,2 | E,2 E,E, G,F,E,E, | E,E,E,E, C,C, E,2 | E,2 E,2 E,2 E,2 | E,2 E,2 E,2 E,2 | %14
 E,2 E,E, C,C,E,F, | G,A, z B,, C,B,, E,2- | E,6 z2 |] %17

